X: 1278
T: Kâkülleri Lüle Lüle
C: Tanburî Mustafa Çavuş
O: Turkey
F: http://compmusic.upf.edu/node/140
N: evic--sarki--aydin--kakulleri_lule--tanburi_mustafa_cavus
N: makam= evic
N: form= sarki
N: usul= aydin = 9/8
M: 9/8
L: 1/16
K: C _1/4B ^f ^c 
Q: 1/4=276
%%MIDI tuningsystem comma53
f4 f4 f4 g2f2 e2 | g4f2 e2f2 g2a4z2  | \
w:  ARANAĞME  |   | 
g4 ^3/4f4 e4 d4 e2 | e2 d2=c2 d2c2 _2/4B2A4z2  | 
w:   |   | 
d4 =c2d2 c2d2 c2c2 B2 | A2 B2=c2 B2A2 G2F4z2  | \
w:   |   | 
B4 A2B2 A2B2 =c2B2 A2 | 
w:   | 
A2 G2G2 F2F2 ^3/4E2F4z2  | d4 d4 ^3/4e4 d4 g2 | \
w:   |  Kâ kül le  | 
f3^3/4ef2 g2f2 g2a4z2  | 
w:  ri   | 
f4 g4 f4 ^2/4e4 d2 | d4d4^3/4e4d4g2  | \
w:  lü le  lü le    |  Kâ kül le  | 
f3^3/4e f2g2 f2g2 a4 z2 | f4g4f4^2/4e4d2  | 
w:  ri   |  lü le  lü le    | 
d4 d4 e2{=f}d2 =c4 _2/4B2 | d4d4e2 {=f}d2=c4_2/4B2  | \
w:  Gel kar şı *  *  ma   |  gel  kar şı *  *  ma   | 
A6B2 =c2B2 A2G2 F2 | F6 e2d2 =c2d4z2  | 
w:  gü *  le  *  gü  |  le   SAZ  | 
d4 d4 e2{=f}d2 =c4 _2/4B2 | d4d4e2 {=f}d2=c4_2/4B2  | \
w:  Gel kar şı *  *  ma   |  gel  kar şı *  *  ma   | 
A6B2 =c2B2 A2G2 F2 | F6 ^3/4E2D2 E2F4z2  | 
w:  gü *  le  *  gü  |  le   SAZ  | 
d4 d4 e4 d4 g2 | f6 g2f2 g2a4z2  | f4 g4 f4 ^2/4e4 d2 | \
w:  Ben  se ni  sev  |  dim   |  bi le  bi le    | 
d4d4e4d4g2  | 
w:  Ben  se ni  sev  | 
f6g2 f2g2 a4 z2 | f4g4f4^2/4e4d2  | d2d4d2 e2d2 =c4 B2 | \
w:  dim   |  bi le  bi le    |  Ga la ta  bas *  ma sı    | 
d2 d2d2 d2e2 d2=c4B2  | 
w:  U ru me li  yos *  ma sı    | 
A6B2 =c2B2 A2G2 F2 | F6 e2d2 =c2d4z2  | \
w:  Sar sak_ ol *  maz   |  mı   SAZ  | 
d4 d2d2 e2d2 =c4 B2 | d2 d2d2 d2e2 d2=c4B2  | 
w:  Yir mi lik_ al *  tı nı    |  O  be yaz  *  ger *  da na    | 
A6B2 =c2B2 A2G2 F2 | F8d2 d2=c2 B2A2  | \
w:  Tak sak_ ol *  maz   |  mı   Ha di  gel   | 
A6B2 =c2B2 A2G2 F2 | F6 D2^3/4E2 D2F2 GAB/c/d/^3/4e/  | 
w:  tak sak_ ol *  maz   |  mı   SAZ  | 
f4 f4 f4 g2f2 e2 | g4f2 e2f2 g2a4z2  | \
w:  ARANAĞME  |   | 
g4 ^3/4f4 e4 d4 e2 | e2 d2=c2 d2c2 _2/4B2A4z2  | 
w:   |   | 
d4 =c2d2 c2d2 c2c2 B2 | A2 B2=c2 B2A2 G2F4z2  | \
w:   |   | 
B4 A2B2 A2B2 =c2B2 A2 | 
w:   | 
A2 G2G2 F2F2 ^3/4E2F4z2  | d4 d4 ^3/4e4 d4 g2 | \
w:   |  Kâ kül le  | 
f3^3/4ef2 g2f2 g2a4z2  | 
w:  ri   | 
f4 g4 f4 ^2/4e4 d2 | d4d4^3/4e4d4g2  | \
w:  lü le  lü le    |  Kâ kül le  | 
f3^3/4e f2g2 f2g2 a4 z2 | f4g4f4^2/4e4d2  | 
w:  ri   |  lü le  lü le    | 
d4 d4 e2{=f}d2 =c4 _2/4B2 | d4d4e2 {=f}d2=c4_2/4B2  | \
w:  Gel kar şı *  *  ma   |  gel  kar şı *  *  ma   | 
A6B2 =c2B2 A2G2 F2 | F6 e2d2 =c2d4z2  | 
w:  gü *  le  *  gü  |  le   SAZ  | 
d4 d4 e2{=f}d2 =c4 _2/4B2 | d4d4e2 {=f}d2=c4_2/4B2  | \
w:  Gel kar şı *  *  ma   |  gel  kar şı *  *  ma   | 
A6B2 =c2B2 A2G2 F2 | F6 ^3/4E2D2 E2F4z2  | 
w:  gü *  le  *  gü  |  le   SAZ  | 
d4 d4 e4 d4 g2 | f6 g2f2 g2a4z2  | f4 g4 f4 ^2/4e4 d2 | \
w:  Ben  se ni  sev  |  dim   |  bi le  bi le    | 
d4d4e4d4g2  | 
w:  Ben  se ni  sev  | 
f6g2 f2g2 a4 z2 | f4g4f4^2/4e4d2  | d2d4d2 e2d2 =c4 B2 | \
w:  dim   |  bi le  bi le    |  Ga la ta  bas *  ma sı    | 
d2 d2d2 d2e2 d2=c4B2  | 
w:  U ru me li  yos *  ma sı    | 
A6B2 =c2B2 A2G2 F2 | F6 e2d2 =c2d4z2  | \
w:  Sar sak_ ol *  maz   |  mı   SAZ  | 
d4 d2d2 e2d2 =c4 B2 | d2 d2d2 d2e2 d2=c4B2  | 
w:  Yir mi lik_ al *  tı nı    |  O  be yaz  *  ger *  da na    | 
A6B2 =c2B2 A2G2 F2 | F8d2 d2=c2 B2A2  | \
w:  Tak sak_ ol *  maz   |  mı   Ha di  gel   | 
A6B2 =c2B2 A2G2 F2 | F6 |
w:  tak sak_ ol *  maz   |  mı    | 


